mimes/scalable/unknown.svg

<?xml version="1.0" encoding="UTF-8" standalone="no"?>
<svg
   xmlns:dc="http://purl.org/dc/elements/1.1/"
   xmlns:cc="http://creativecommons.org/ns#"
   xmlns:rdf="http://www.w3.org/1999/02/22-rdf-syntax-ns#"
   xmlns:svg="http://www.w3.org/2000/svg"
   xmlns="http://www.w3.org/2000/svg"
   xmlns:sodipodi="http://sodipodi.sourceforge.net/DTD/sodipodi-0.dtd"
   xmlns:inkscape="http://www.inkscape.org/namespaces/inkscape"
   width="48"
   height="48"
   viewBox="0 0 12.7 12.7"
   version="1.1"
   id="svg4"
   sodipodi:docname="unknown.svg"
   inkscape:version="0.92.3 (2405546, 2018-03-11)">
  <metadata
     id="metadata10">
    <rdf:RDF>
      <cc:Work
         rdf:about="">
        <dc:format>image/svg+xml</dc:format>
        <dc:type
           rdf:resource="http://purl.org/dc/dcmitype/StillImage" />
        <dc:title></dc:title>
      </cc:Work>
    </rdf:RDF>
  </metadata>
  <defs
     id="defs8" />
  <sodipodi:namedview
     pagecolor="#ffffff"
     bordercolor="#666666"
     borderopacity="1"
     objecttolerance="10"
     gridtolerance="10"
     guidetolerance="10"
     inkscape:pageopacity="0"
     inkscape:pageshadow="2"
     inkscape:window-width="1366"
     inkscape:window-height="715"
     id="namedview6"
     showgrid="false"
     showguides="true"
     inkscape:guide-bbox="true"
     inkscape:snap-global="true"
     inkscape:zoom="10.979167"
     inkscape:cx="24"
     inkscape:cy="24"
     inkscape:window-x="0"
     inkscape:window-y="27"
     inkscape:window-maximized="1"
     inkscape:current-layer="svg4" />
  <path
     inkscape:connector-curvature="0"
     style="opacity:1;fill:#216778;fill-opacity:1;fill-rule:nonzero;stroke:none;stroke-width:0.50711805;stroke-linecap:round;stroke-linejoin:bevel;stroke-miterlimit:4;stroke-dasharray:none;stroke-opacity:1"
     d="m 7.3492433,0.0566603 c -0.040983,0 -0.078161,0.0127642 -0.1049033,0.0330729 C 7.218411,0.1094229 7.202933,0.1367362 7.201965,0.1667311 7.3445127,0.2235372 7.4736634,0.30302596 7.5802366,0.40909358 7.76971,0.59766786 7.8931916,0.85276088 7.9104491,1.1392812 h 0.00672 v 0.068213 0.1441772 0.1369425 0.1927531 c 0,0.2812905 0.2266883,0.5079794 0.5079795,0.5079794 h 0.1183391 l -5.291e-4,0.00568 h 1.6924064 c 0.329951,0 0.613684,0.1491999 0.819072,0.3731038 V 1.141865 0.56463964 c 0,-0.14064565 -0.05654,-0.26789289 -0.148312,-0.35966798 C 10.814345,0.11319656 10.687101,0.0566603 10.546455,0.0566603 H 9.0462851 7.7864139 Z"
     id="path965" />
  <path
     style="opacity:1;fill:#333333;fill-opacity:1;fill-rule:nonzero;stroke:none;stroke-width:0.50711805;stroke-linecap:round;stroke-linejoin:bevel;stroke-miterlimit:4;stroke-dasharray:none;stroke-opacity:1"
     d="m 2.9460732,0.55206094 c -0.6285519,0 -1.134298,0.50626306 -1.134298,1.13481446 v 9.9012056 c 0,0.628551 0.5057461,1.134814 1.134298,1.134814 h 4.2855261 2.522327 c 0.6285527,0 1.1342987,-0.506263 1.1342987,-1.134814 V 3.6728008 h -0.01292 C 10.810197,3.1070068 10.337709,2.6687276 9.7539263,2.6687276 h -1.692403 v 0 l -0.11781,-0.00568 C 7.6627483,2.6495013 7.4357343,2.4363589 7.4357343,2.1550682 V 1.9623107 1.8253682 1.6811909 1.612978 h -0.0067 C 7.3941823,1.0346118 6.9321933,0.5804805 6.3510473,0.55464473 l -5.29e-4,-0.002585 h -0.02015 z"
     id="path833"
     inkscape:connector-curvature="0" />
  <path
     style="opacity:1;fill:#cccccc;fill-opacity:1;fill-rule:nonzero;stroke:none;stroke-width:0.50711805;stroke-linecap:round;stroke-linejoin:bevel;stroke-miterlimit:4;stroke-dasharray:none;stroke-opacity:1"
     d="m 6.4269983,1.0791605 c 0.263277,0.019482 0.470254,0.2359637 0.470255,0.504362 v 0.2563151 0.125057 0.092501 c 0,0.5757933 0.427721,1.0388807 0.982369,1.1136271 v 0 l 1.962134,0.026872 c 0.2812647,0.00385 0.5079787,0.2266886 0.5079797,0.5079793 V 5.7894678 11.68575 c 0,0.281291 -0.226688,0.50798 -0.5079797,0.50798 H 7.2315993 2.8582236 c -0.281291,0 -0.50798,-0.226689 -0.50798,-0.50798 V 1.5892069 c 0,-0.2812907 0.226689,-0.5079794 0.50798,-0.5079794 h 3.5692907 z"
     id="path901-5"
     inkscape:connector-curvature="0" />
  <path
     inkscape:connector-curvature="0"
     style="line-height:normal;text-indent:0;text-align:start;text-decoration:none;text-decoration-line:none;text-transform:none;fill:#216778;fill-opacity:1;stroke-width:0.26458332;marker:none"
     d="M 6.4043001,4.2335475 C 5.5208563,4.2176725 4.5821682,4.5561613 4.2964182,5.2221176 4.1307891,5.5925343 4.2841652,6.2566797 4.8400544,6.2566797 c 0.3254375,0 0.4745881,-0.2096905 0.4991943,-0.4020426 C 5.3577697,5.7091163 5.2979577,5.5794332 5.2627677,5.4593123 5.2225506,5.3225227 5.3942987,5.0569514 5.5810946,4.949266 5.7371987,4.858778 5.900149,4.8284795 5.9242261,4.8226587 6.4846136,4.6879858 7.0435004,4.9857412 7.2765983,5.3476912 7.5096962,5.7099058 7.2532038,6.259152 6.8843741,6.7930811 6.5155449,7.3272749 6.1197902,7.9337245 6.1211131,8.5779849 c 0,0.2452687 -0.021812,0.3283977 -0.0062,0.427881 0.012435,0.079375 0.2748565,0.069598 0.4759399,0.032556 C 6.5733887,8.4140054 6.7134607,7.8087628 7.3029524,7.3796084 7.9257815,6.8943628 8.5255549,6.2868959 8.4620549,5.5709334 8.4485612,4.8806355 7.6439135,4.3397568 6.7774031,4.2619693 6.6556947,4.2450363 6.530241,4.2359293 6.4043001,4.2335475 Z M 6.3350531,9.8786788 C 5.7992724,9.8495791 5.4280786,10.456908 5.7500765,10.843994 6.037414,11.271296 6.8439302,11.165388 6.9820427,10.681729 7.1257114,10.305227 6.7798182,9.8723288 6.3350531,9.8786788 Z"
     id="path848" />
</svg>

<?xml version="1.0" encoding="UTF-8" standalone="no"?><svg xmlns:dc="http://purl.org/dc/elements/1.1/" xmlns:cc="http://creativecommons.org/ns#" xmlns:rdf="http://www.w3.org/1999/02/22-rdf-syntax-ns#" xmlns="http://www.w3.org/2000/svg" width="48" height="48" viewBox="0 0 12.7 12.7"><metadata><rdf:RDF><cc:Work><dc:format>image/svg+xml</dc:format><dc:type rdf:resource="http://purl.org/dc/dcmitype/StillImage"/><dc:title/></cc:Work></rdf:RDF></metadata><path d="M7.35.06a.17.17 0 0 0-.1.03.1.1 0 0 0-.05.08 1.12 1.12 0 0 1 .71.97v.55c0 .27.23.5.52.5h1.81c.33 0 .6.15.81.38V.56a.5.5 0 0 0-.5-.5H7.79z" fill="#216778"/><path d="M2.95.55c-.63 0-1.14.5-1.14 1.14v9.9c0 .63.5 1.13 1.14 1.13H9.75c.63 0 1.14-.5 1.14-1.13V3.67h-.01c-.07-.56-.54-1-1.13-1H7.94a.52.52 0 0 1-.5-.51V1.6h-.01A1.12 1.12 0 0 0 6.35.55h-.02z" fill="#333"/><path d="M6.43 1.08a.5.5 0 0 1 .47.5v.48c0 .57.42 1.04.98 1.11l1.96.03c.28 0 .51.22.51.5v7.99a.5.5 0 0 1-.5.5H2.85a.5.5 0 0 1-.51-.5V1.59c0-.28.23-.5.5-.5h3.58z" fill="#ccc"/><path style="line-height:normal;text-indent:0;text-align:start;text-decoration-line:none;text-transform:none;marker:none" d="M6.4 4.23c-.88-.01-1.82.33-2.1 1-.17.36-.02 1.03.54 1.03.33 0 .47-.21.5-.4.02-.15-.04-.28-.08-.4-.04-.14.13-.4.32-.51.16-.1.32-.12.34-.13.56-.13 1.12.17 1.36.53.23.36-.03.9-.4 1.44-.36.54-.76 1.14-.76 1.79 0 .24-.02.33 0 .43 0 .08.27.07.47.03-.02-.63.12-1.23.71-1.66.63-.49 1.23-1.1 1.16-1.8-.01-.7-.82-1.24-1.68-1.32a3.15 3.15 0 0 0-.38-.03zm-.06 5.65c-.54-.03-.91.58-.59.96.29.43 1.1.33 1.23-.16.15-.37-.2-.8-.64-.8z" fill="#216778"/></svg>
